X: 1
T:Miss Murray of Lintrose
M:2/4
L:1/16
S:AABB x 2
R:Polka or 2/4 Reel
K:A
||:e2|"A"c2cB A2E2|"D"F4 E2d2|"A"c2A2 B2AG|"A"ABcd "E"e2dc|!
"A"c2cB A2E2|"D"F4 "E"E2d2|c2A2 "E"GABG|"A"A4-A2:||!
"A"A2e2 e2de|"D"f2d2 d2cd|"E"E2d2 d2cd|"A"e2c2 c2BA|!
"A"E2c2 "D"F2d2|"A"c4 "E"B2d2|c2A2 "E"GABG|A4-A2:||
